packages/Snapp/src/SunriseIcon/index.svg

<?xml version="1.0" encoding="UTF-8"?>
<svg width="24px" height="24px" viewBox="0 0 24 24" version="1.1" xmlns="http://www.w3.org/2000/svg" xmlns:xlink="http://www.w3.org/1999/xlink">
    <title>Icons/24/Sunrise</title>
    <g id="Icons/24/Sunrise" stroke="none" stroke-width="1" fill="none" fill-rule="evenodd">
        <rect id="Container" fill-opacity="0" fill="#D8D8D8" fill-rule="nonzero" x="0" y="0" width="24" height="24"></rect>
        <path d="M13,5.41421356 L13,9.36363636 C13,9.91592111 12.5522847,10.3636364 12,10.3636364 C11.4477153,10.3636364 11,9.91592111 11,9.36363636 L11,5.41421356 L9.07074314,7.34347042 C8.68021885,7.73399471 8.04705387,7.73399471 7.65652958,7.34347042 C7.26600529,6.95294613 7.26600529,6.31978115 7.65652958,5.92925686 L11.2928932,2.29289322 C11.6834175,1.90236893 12.3165825,1.90236893 12.7071068,2.29289322 L16.3434704,5.92925686 C16.7339947,6.31978115 16.7339947,6.95294613 16.3434704,7.34347042 C15.9529461,7.73399471 15.3197811,7.73399471 14.9292569,7.34347042 L13,5.41421356 Z M17,17 C17,17.5522847 16.5522847,18 16,18 C15.4477153,18 15,17.5522847 15,17 C15,15.3431458 13.6568542,14 12,14 C10.3431458,14 9,15.3431458 9,17 C9,17.5522847 8.55228475,18 8,18 C7.44771525,18 7,17.5522847 7,17 C7,14.2385763 9.23857625,12 12,12 C14.7614237,12 17,14.2385763 17,17 Z M5.29289322,11.7071068 C4.90236893,11.3165825 4.90236893,10.6834175 5.29289322,10.2928932 C5.68341751,9.90236893 6.31658249,9.90236893 6.70710678,10.2928932 L7.70710678,11.2928932 C8.09763107,11.6834175 8.09763107,12.3165825 7.70710678,12.7071068 C7.31658249,13.0976311 6.68341751,13.0976311 6.29289322,12.7071068 L5.29289322,11.7071068 Z M4,17 C3.44771525,17 3,16.5522847 3,16 C3,15.4477153 3.44771525,15 4,15 L5,15 C5.55228475,15 6,15.4477153 6,16 C6,16.5522847 5.55228475,17 5,17 L4,17 Z M19,17 C18.4477153,17 18,16.5522847 18,16 C18,15.4477153 18.4477153,15 19,15 L20,15 C20.5522847,15 21,15.4477153 21,16 C21,16.5522847 20.5522847,17 20,17 L19,17 Z M17.7071068,12.7071068 C17.3165825,13.0976311 16.6834175,13.0976311 16.2928932,12.7071068 C15.9023689,12.3165825 15.9023689,11.6834175 16.2928932,11.2928932 L17.2928932,10.2928932 C17.6834175,9.90236893 18.3165825,9.90236893 18.7071068,10.2928932 C19.0976311,10.6834175 19.0976311,11.3165825 18.7071068,11.7071068 L17.7071068,12.7071068 Z M20,19 C20.5522847,19 21,19.4477153 21,20 C21,20.5522847 20.5522847,21 20,21 L4,21 C3.44771525,21 3,20.5522847 3,20 C3,19.4477153 3.44771525,19 4,19 L20,19 Z" id="Shape" fill="#404040" fill-rule="nonzero"></path>
    </g>
</svg>

<svg viewBox="0 0 24 24" xmlns="http://www.w3.org/2000/svg" fill="currentColor" focusable="false">
  <path d="M13 5.414v3.95a1 1 0 01-2 0v-3.95l-1.93 1.93a1 1 0 01-1.413-1.415l3.636-3.636a1 1 0 011.414 0l3.636 3.636a1 1 0 01-1.414 1.414L13 5.414zM17 17a1 1 0 01-2 0 3 3 0 00-6 0 1 1 0 01-2 0 5 5 0 0110 0zM5.293 11.707a1 1 0 011.414-1.414l1 1a1 1 0 01-1.414 1.414l-1-1zM4 17a1 1 0 010-2h1a1 1 0 010 2H4zm15 0a1 1 0 010-2h1a1 1 0 010 2h-1zm-1.293-4.293a1 1 0 01-1.414-1.414l1-1a1 1 0 011.414 1.414l-1 1zM20 19a1 1 0 010 2H4a1 1 0 010-2h16z" fill="none"/>
</svg>
